src/assets/bag.svg

<svg width="32" height="32" viewBox="0 0 32 32" fill="none" xmlns="http://www.w3.org/2000/svg">
<path d="M22.9519 12L17.1151 3.25335C16.9905 3.07675 16.8245 2.93337 16.6317 2.83575C16.4389 2.73814 16.2251 2.68925 16.0091 2.69335C15.5826 2.69335 15.1562 2.88002 14.903 3.26669L9.06628 12H2.68317C1.95025 12 1.35059 12.6 1.35059 13.3334C1.35059 13.4534 1.36391 13.5734 1.40389 13.6934L4.78867 26.0534C5.09516 27.1734 6.12125 28 7.34724 28H24.6709C25.8969 28 26.923 27.1734 27.2428 26.0534L30.6276 13.6934L30.6675 13.3334C30.6675 12.6 30.0679 12 29.335 12H22.9519ZM12.0113 12L16.0091 6.13335L20.0068 12H12.0113ZM16.0091 22.6667C14.5432 22.6667 13.3439 21.4667 13.3439 20C13.3439 18.5334 14.5432 17.3334 16.0091 17.3334C17.4749 17.3334 18.6742 18.5334 18.6742 20C18.6742 21.4667 17.4749 22.6667 16.0091 22.6667Z" fill="white"/>
</svg>

<svg width="32" height="32" fill="none" xmlns="http://www.w3.org/2000/svg"><path d="M22.952 12l-5.837-8.747a1.323 1.323 0 00-1.106-.56c-.426 0-.853.187-1.106.574L9.066 12H2.683c-.733 0-1.332.6-1.332 1.333 0 .12.013.24.053.36l3.385 12.36A2.65 2.65 0 007.347 28h17.324a2.678 2.678 0 002.572-1.947l3.385-12.36.04-.36c0-.733-.6-1.333-1.333-1.333h-6.383zm-10.94 0l3.997-5.867L20.007 12H12.01zm3.997 10.667A2.674 2.674 0 0113.344 20c0-1.467 1.2-2.667 2.665-2.667 1.466 0 2.665 1.2 2.665 2.667 0 1.467-1.2 2.667-2.665 2.667z" fill="#fff"/></svg>
